X:1
T: The Mason's Cap
C:
R:Reel
Q: 232
K:A
M:4/4
L:1/8
|:e|cA AB AB AF|EF AB c2 BA|dB Bc Bc BA|Bc de f2 ed|
cA AB AB AF|EF AB c2 BA|Bc de fe fa|((3AAA) cB A3:|
|:e|cA eA fA eA|cA eA fe dc|dB fB aB fB|fB fB f2 ed|
cA eA fA eA|cA eA fe dc|Bc de fe fa|((3AAA) cB A3:|
